X: 1618
T: Joe Yates Schottische No 2
B: australian traditional tunes wiki
M:4/4
L:1/8
R: Schottische
Q: 1/4=100
K:G
V:1 
B,>C|:"G"D2B>A "D7"G>F E>D|"G"B,2D2D2B,>C|D>E F>G "G7"A>G F>G|"C"F2E2E2A>B|1
c2{d}c>B A>G F>E|"D7"[F2A2][F2A2][F2A2]E2|D>E F>G A>G F>E|"G"D2D>E "D7"D>C B,>C:|2
"C"c2e>c "G"B2d>B|"D7"A>B c>A "G"G>A B>c|"D7"d>e d>B c>A F>A|"G"G2G2G2B>c||
|:"G"d2d>e "D7"d>c B>c|"G"d2d2d2g>a-|"Em"b2b2b>a g>a|"G"b2b2b2B>c|1
d2d>e "D7"d>c B>c|"G"d2d2d2F>G-|"D7"A2A>B A>G F>G-|A2A2A2B>c:|2
"C"e2f>g"D7"a2g>(a|"G"b>a) g>e "D7"d>c B>c|"G"d>e d>B "D7"c>A F>A|"G"G2{A}G2G2||
% abcbook-tune_id 6342d53a8a43ca47b8fadc6e


% abcbook-boost 0
% abcbook-tablature 
% abcbook-transpose 
% abcbook-lastupdated 1665324374304
% abcbook-soundfonts 
% abcbook-repeats 1
% NFF Book 2009

